!!!COM: Music21
!!!OTL: polka_La-Ponentina
!!!OMV: polka_La-Ponentina
**kern
*clefG2
*k[]
*M2/4
=1
16.aLL
32bK
16cc
[16eeJJ
=
16eeLL]
16dd
16cc
16bJJ
4ryy
=
16.aLL
32bK
16cc
[16ffJJ
4ryy
=
16ffLL]
16ee
16dd
16ccJJ
4ryy
=
16.bLL
32ccK
16dd
16bJJ
4ryy
=
16.eeLL
32ddK
16cc
16bJJ
4ryy
=
16.aLL
32bK
16cc
[16bJJ
4ryy
!!linebreak:original
=
16bLL]
16a
16g#X
16eJJ
4ryy
=||
*M2/4
16.aLL
32bK
16cc
[16eeJJ
=
16eeLL]
16dd
16cc
16bJJ
4ryy
=
16.aLL
32bK
16cc
[16ffJJ
4ryy
=
16ffLL]
16ee
16dd
16ccJJ
4ryy
=
16.bLL
32ccK
16dd
16bJJ
4ryy
=
16.eeLL
32ddK
16cc
16bJJ
4ryy
!!linebreak:original
=
16.aLL
32bK
16cc
[16bJJ
4ryy
=
8.bL]
16eeJk
4ryy
=||
16.ffLL
32ddK
16gg
16ffJJ
4ryy
=
16eeLL
16dd
16cc
16ddJJ
4ryy
=
16dd#XLL
16ee
16g#X
[16aJJ
4ryy
=
16aLL]
16b
16cc
16eeJJ
4ryy
=
16.ffLL
32ddK
16gg
16ffJJ
4ryy
=
16eeLL
16dd
16cc
16ddJJ
4ryy
!!linebreak:original
=
8dd#XL
16ddnL
[16eeJJ
4ryy
=
8.eeL]
16eeJk
4ryy
=||
16.ffLL
32ddK
16gg
16ffJJ
4ryy
=
16eeLL
16dd
16cc
16ddJJ
4ryy
=
16dd#XLL
16ee
16g#X
[16aJJ
4ryy
=
16aLL]
16b
16cc
16eeJJ
4ryy
=
16.ffLL
32ddK
16gg
16ffJJ
4ryy
=
16eeLL
16dd
16cc
16ddJJ
4ryy
!!linebreak:original
=
8dd#XL
16ddnL
[16eeJJ
4ryy
=
16eeLL]
16dd
16cc
16bJJ
4ryy
=||
*-
